!!!COM:	Martini, Johannes
!!!CDT:	~1440///-~1497//
!!!OTL:	Sepe expugnaverunt me
!!!AGN:	Motet
!!!SCT:	Mar2084
!!!SCA:	Mar2084
!!!voices:	2
**kern	**kern
*staff2	*staff1
*Ivox	*Ivox
*I"Tenor	*I"Superius
*I'T	*I'S
*>[A,B,C,D,E,F,G,H,I]	*>[A,B,C,D,E,F,G,H,I]
*>A	*>A
*clefGv2	*clefG2
*k[]	*k[]
*M2/1	*M2/1
*met(C)	*met(C)
=1-	=1-
!!LO:TX:Z=8:t=Choir 1
!!section: Dicat nunc
!!!OMD: Dicat nunc
1A	1a
1B	1g
=2	=2
2c\	2a/
2d\	2b\
2B\	2g/
2c\	[2a/
=3	=3
1A	2a/]
.	4g/
.	4f/
2G/	2e/
[2A/	[2f/
=4	=4
4A/]	2f/]
4G/	.
2E/	1e
1F	.
.	2d/
=5	=5
0El	0el
=6||	=6||
*>B	*>B
!!section: Sepe expugnaverunt
!!!OMD: Sepe expugnaverunt
!!LO:TX:Z=8:t=Choir 2
1A	1a
1c	1a
=7	=7
1c	1a
2c\	2a/
2c\	2a/
=8	=8
2c\	2a/
2c\	2a/
1A	1a
=9	=9
2c\	2a/
2c\	2a/
2B\	2g/
2c\	2a/
=10	=10
2d\	2b\
2A/	1a
1B	.
.	2g#i/
=11	=11
1A	1a
1r	1r
=12	=12
1c	1a
2c\	2a/
2c\	2a/
=13	=13
1B	1g
2c\	2a/
2d\	2b\
=14	=14
2B\	2g/
2c\	1a
1A	.
.	4g/
.	4f/
=15	=15
2G/	2e/
2.A/	2.f/
4G/	4e/
2E/	[2e/
=16	=16
1F	2e/]
.	2d/
1El	1el
=17||	=17||
*>C	*>C
!!section: Supra dorsum
!!!OMD: Supra dorsum
!!LO:TX:Z=8:t=Choir 1
2A/	2a/
2A/	2a/
2c\	2a/
2c\	2a/
=18	=18
1c	1a
1c	1a
=19	=19
2c\	2a/
2c\	2a/
2c\	2a/
2c\	2a/
=20	=20
1A	1a
2c\	2a/
[2d\	[2b\
=21	=21
2d\]	2b\]
2c\	1a
1B	.
.	2g#i/
=22	=22
1A	1a
1r	1r
=23	=23
2c\	2a/
2c\	2a/
2c\	2a/
2c\	2a/
=24	=24
1c	1a
1B	1g
=25	=25
2c\	2a/
2d\	2b\
2B\	2g/
2c\	[2a/
=26	=26
1A	2a/]
.	4g/
.	4f/
2G/	2e/
[2A/	[2f/
=27	=27
4A/]	4f/]
4G/	4e/
2E/	1e
1F	.
.	2d/
=28	=28
0El	0el
=29||	=29||
*>D	*>D
!!LO:TX:Z=8:t=Choir 2
!!section: Dominus justus
!!!OMD: Dominus justus
1A	1a
2c\	2a/
2c\	2a/
=30	=30
1c	1a
1A	1a
=31	=31
1c	1a
2c\	2a/
2c\	2a/
=32	=32
2c\	2a/
2c\	2a/
1c	1a
=33	=33
1B	1g
2c\	2a/
[2d\	[2b\
=34	=34
2d\]	2b\]
2c\	1a
1B	.
.	2g#i/
=35	=35
1A	1a
1r	1r
=36	=36
2c\	2a/
2c\	2a/
1c	1a
=37	=37
1c	1a
2B\	2g/
2c\	2a/
=38	=38
2d\	2b\
2B\	2g/
2c\	2a/
4B\	4g/
4A/	4f/
=39	=39
2G/	2e/
2.A/	2.f/
4G/	4e/
2E/	[2e/
=40	=40
1F	2e/]
.	2d/
1El	1el
=41||	=41||
*>E	*>E
!!section: Fiant sicut
!!!OMD: Fiant sicut
!!LO:TX:Z=8:t=Choir 1
1A	1a
1c	1a
=42	=42
2c\	2a/
2c\	2a/
1c	1a
=43	=43
2B\	2g/
2c\	2a/
1d	1b
=44	=44
1A	1a
1r	1r
=45	=45
1c	1a
2c\	2a/
2c\	2a/
=46	=46
1c	1a
2B\	2g/
2c\	2a/
=47	=47
2d\	2b\
2B\	2g/
2c\	2a/
4B\	4g/
4A/	4f/
=48	=48
2G/	2e/
2.A/	2.f/
4G/	4e/
2E/	[2e/
=49	=49
1F	2e/]
.	2d/
1El	1el
=50||	=50||
*>F	*>F
!!LO:TX:Z=8:t=Choir 2
!!section: De quo non implevit
!!!OMD: De quo non implevit
2A/	2a/
2A/	2a/
2c\	2a/
2c\	2a/
=51	=51
1c	1a
1c	1a
=52	=52
2A/	2a/
2B\	2g/
2c\	2a/
[2d\	[2b\
=53	=53
2d\]	2b\]
2c\	1a
1B	.
.	2g#i/
=54	=54
1A	1a
1r	1r
=55	=55
1c	1a
2c\	2a/
2c\	2a/
=56	=56
1c	1a
1A	1a
=57	=57
1B	1g
2c\	2a/
2d\	2b\
=58	=58
2B\	2g/
2c\	1a
1A	.
.	4g/
.	4f/
=59	=59
2G/	2e/
2.A/	2.f/
4G/	4e/
2E/	[2e/
=60	=60
1F	2e/]
.	2d/
1El	1el
=61||	=61||
*>G	*>G
!!section: Et non dixerunt
!!!OMD: Et non dixerunt
!!LO:TX:Z=8:t=Choir 1
1A	1a
2c\	2a/
2c\	2a/
=62	=62
1c	1a
1c	1a
=63	=63
2c\	2a/
2c\	2a/
2c\	2a/
2c\	2a/
=64	=64
1c	1a
1A	1a
=65	=65
2c\	2a/
2c\	2a/
2c\	2a/
2c\	2a/
=66	=66
2c\	2a/
2c\	2a/
1c	1a
=67	=67
2d\	2b\
2.e\	1cc
4d\	.
2B\	[2b\
=68	=68
1c	2b\]
.	2a/
1B	1b
=69	=69
1r	1r
2c\	2a/
2c\	2a/
=70	=70
2c\	2a/
2c\	2a/
2c\	2a/
2c\	2a/
=71	=71
1c	1a
1B	1b
=72	=72
2c\	2a/
2d\	2b\
2B\	2g/
2c\	[2a/
=73	=73
1A	2a/]
.	4g/
.	4f/
2G/	2e/
[2A/	[2f/
=74	=74
4A/]	4f/]
4G/	4e/
2E/	1e
1F	.
.	2d/
=75	=75
0El	0el
=76||	=76||
*>H	*>H
!!section: Gloria Patri
!!!OMD: Gloria Patri
!!LO:TX:Z=8:t=Choir 2
1A	1a
2c\	2a/
2c\	2a/
=77	=77
1c	1a
1B	1g
=78	=78
1c	1a
2d\	2b\
[2e\	[2cc\
=79	=79
2e\]	2cc\]
4d\	4b\
4c\	4a/
2B\	2g/
2A/	[2a/
=80	=80
1B	2a/]
.	2g#i/
1A	1a
=81	=81
1r	1r
1c	1a
=82	=82
1B	1g
2c\	2a/
2d\	2b\
=83	=83
2B\	2g/
2c\	1a
1A	.
.	4g/
.	4f/
=84	=84
2G/	2e/
2.A/	2.f/
4G/	4e/
2E/	[2e/
=85	=85
1F	2e/]
.	2d/
1El	1el
=86||	=86||
*>I	*>I
!!LO:TX:Z=8:t=Choir 1
!!section: Sicut erat
!!!OMD: Sicut erat
2A/	2a/
2A/	2a/
2c\	2a/
2c\	2a/
=87	=87
2c\	2a/
2c\	2a/
2c\	2a/
2c\	2a/
=88	=88
1c	1a
2B\	2g/
2c\	2a/
=89	=89
2d\	2b\
2c\	1a
1B	.
.	2g#i/
=90	=90
1A	1a
1r	1r
=91	=91
2c\	2a/
2c\	2a/
1c	1a
=92	=92
2B\	2g/
2c\	1a
2A/	.
2B\	2g/
=93	=93
2G/	2e/
1A	1f
2G/	[2e/
=94	=94
1F	2e/]
.	2d/
1El	1el
==	==
*-	*-
!!!RDF**kern: l=long note in original notation
!!!RDF**kern: i=editorial accidental
!!!ENC:	Chris Gage 02-10-2014
!!!END:	2014/10/06/
!!!EED:	Jesse Rodin
!!!EEV:	2014/10/23/
!!!ONB:	Translated from MusicXML and edited on 2014/10/23/ by Craig Sapp
!!muse2ps: C^@{COM}^i2I150v85,150Q16
